X: 141
T: The  New Mandolin
B: canberra pickers and fiddlers
B: old time tunes update
B: tunes
M:4/4
L:1/8
R: reel
Q: 1/4=100
K:Am
V:1 
|:A2 {G}AG AEEA | edBA GABG |A2 {G}AG AEEA | edBG A2 {G}AG:|
A2 ag aeea | gedB GABG |A2 ag aeea | gedB A2 {G}AG |
A2 ag aeea | gedB GABG | A2 {G}AG AEEA | edBG A2 {G}AG||
% abcbook-tune_id 67a7d9ec4d03a1c4929c17c1
% abcbook-tune_composer_id 
% abcbook-boost 0
% abcbook-difficulty 0
% abcbook-tags old time tunes
% abcbook-tablature 
% abcbook-transpose -5
% abcbook-tuning ADAE
% abcbook-lastupdated 1739273556637
% abcbook-src-url 
% abcbook-soundfonts 
% abcbook-repeats 1
%%MIDI transpose -5


